X: 42256
T: We're A Case (The Bunch Of Us)
R: waltz
M: 3/4
K: Amixolydian
|:c>e e>c c2|c>f f>e e>c|e>f f>A A2|A>f e>c B>A:|
f>e e>c c>B|B> A A4||

